X:1
T: Cape Spear
C:Muriel A Johnstone
R:Strathspey
%Q: 128
K:Am
M:4/4
L:1/16
|:EA3 A3c B3G A4|A3B c3d e3d eg3|ea3 a3g e3d c3d|eA3 A3c B3A GB3|
EA3 A3c B3G A4|A3B c3d e3d eg3|ea3 a3g e3d c3d|eA3 A3G A4A4|
ga3 e3d eA3 A4|ga3 e3d BAG2 G3B|Aa3 e3d eA3 A3c|BAG2 Bd3 e3d eg3|
ea3 e3d eA3 A4|a4 e3d BAG2 G3B|Aa3 e3d eA3 A3B|cA3 A3G A4A4:|
